X: 1
T: Sydvest  [ABABAB]
O: Danmark
R: jig
Z: 2006 John Chambers <jc:trillian.mit.edu>
M: 6/8
L: 1/8
K: D
A |\
"D"d2d fed | "A7"c2c c>Bc | "A7"e2e gec | "D"dAF DFA |\
"D"d2d fed | "A7"c2c c>Bc | "A7"e2e gcc | "D"d3 d2 ||
f |\
"G"g2g bag |  "D"f3  d3   | "A7"e2e A2A | "D"d2f a2a |\
"G"g2g bag |  "D"f3  d3   | "A7"efg ABc | "D"d3 d2 ::|
